svgs/thin/expand-wide.svg

<svg xmlns="http://www.w3.org/2000/svg" viewBox="0 0 512 512"><!-- Font Awesome Pro 6.0.0-alpha2 by @fontawesome - https://fontawesome.com License - https://fontawesome.com/license (Commercial License) --><path d="M120 64H8C3.594 64 0 67.594 0 72V184C0 188.406 3.594 192 8 192S16 188.406 16 184V80H120C124.406 80 128 76.406 128 72S124.406 64 120 64ZM504 64H392C387.594 64 384 67.594 384 72S387.594 80 392 80H496V184C496 188.406 499.594 192 504 192S512 188.406 512 184V72C512 67.594 508.406 64 504 64ZM504 320C499.594 320 496 323.594 496 328V432H392C387.594 432 384 435.594 384 440S387.594 448 392 448H504C508.406 448 512 444.406 512 440V328C512 323.594 508.406 320 504 320ZM120 432H16V328C16 323.594 12.406 320 8 320S0 323.594 0 328V440C0 444.406 3.594 448 8 448H120C124.406 448 128 444.406 128 440S124.406 432 120 432Z"/></svg>

<svg xmlns="http://www.w3.org/2000/svg" viewBox="0 0 512 512"><!--! Font Awesome Pro 6.3.0 by @fontawesome - https://fontawesome.com License - https://fontawesome.com/license (Commercial License) Copyright 2023 Fonticons, Inc. --><path d="M120 64h-112C3.594 64 0 67.59 0 72v112C0 188.4 3.594 192 8 192S16 188.4 16 184V80h104C124.4 80 128 76.41 128 72S124.4 64 120 64zM504 64h-112C387.6 64 384 67.59 384 72s3.594 8 8 8h104v104C496 188.4 499.6 192 504 192S512 188.4 512 184v-112C512 67.59 508.4 64 504 64zM504 320c-4.406 0-8 3.594-8 8v104h-104c-4.406 0-8 3.594-8 8S387.6 448 392 448h112c4.406 0 8-3.594 8-8v-112C512 323.6 508.4 320 504 320zM120 432H16v-104C16 323.6 12.41 320 8 320S0 323.6 0 328v112C0 444.4 3.594 448 8 448h112C124.4 448 128 444.4 128 440S124.4 432 120 432z"/></svg>
